assets/images/what-is-budget/dial.svg

<svg xmlns="http://www.w3.org/2000/svg" width="40" height="40" viewBox="0 0 40 40" overflow="scroll"><style>.st0,.st1{fill-rule:evenodd;clip-rule:evenodd;fill:#fff}.st1{fill:#1c1b1b}.st2{fill:#fff}</style><circle class="st0" cx="20" cy="20" r="20" id="Ellipse_1782_13_"/><circle class="st1" cx="20" cy="20" r="17" id="Ellipse_1782_11_"/><path class="st2" d="M5 21h3v-1H5v1zm27-1v1h3v-1h-3zM20 36h1v-3h-1v3zm0-27h1V6h-1v3zM8.7 30.9l.7.7 2.1-2.1-.7-.7-2.1 2.1zm21.9-20.5l-.7-.7-2.1 2.1.7.7 2.1-2.1zm-2.1 19.1l2.1 2.1.7-.7-2.1-2.1-.7.7zM9.4 10.4l2.1 2.1.7-.7-2.1-2.1-.7.7z" id="Shape_1160_3_"/></svg>

<svg version="1.1"
	 xmlns="http://www.w3.org/2000/svg" xmlns:xlink="http://www.w3.org/1999/xlink" xmlns:a="http://ns.adobe.com/AdobeSVGViewerExtensions/3.0/"
	 x="0px" y="0px" width="40px" height="40px" viewBox="0 0 40 40" style="overflow:scroll;enable-background:new 0 0 40 40;"
	 xml:space="preserve">
<style type="text/css">
	.st0{fill-rule:evenodd;clip-rule:evenodd;fill:#FFFFFF;}
	.st1{fill-rule:evenodd;clip-rule:evenodd;fill:#1C1B1B;}
	.st2{fill:#FFFFFF;}
</style>
<defs>
</defs>
<g id="Ellipse_1782_13_">
	<g>
		<circle class="st0" cx="20" cy="20" r="20"/>
	</g>
</g>
<g id="Ellipse_1782_11_">
	<g>
		<circle class="st1" cx="20" cy="20" r="17"/>
	</g>
</g>
<g id="Shape_1160_3_">
	<g>
		<path class="st2" d="M5,21h3v-1H5V21z M32,20v1h3v-1H32z M20,36h1v-3h-1V36z M20,9h1V6h-1V9z M8.7,30.9l0.7,0.7l2.1-2.1l-0.7-0.7
			L8.7,30.9z M30.6,10.4l-0.7-0.7l-2.1,2.1l0.7,0.7L30.6,10.4z M28.5,29.5l2.1,2.1l0.7-0.7l-2.1-2.1L28.5,29.5z M9.4,10.4l2.1,2.1
			l0.7-0.7l-2.1-2.1L9.4,10.4z"/>
	</g>
</g>
</svg>
